X: 1
T: Paddy Fahey's
R: hornpipe
M: 4/4
L: 1/8
K: Gmaj
|:(B,A,) | u(G,B,)(DG) (BA)G=F | ECEG       c2dc | ((3Bcd) gd Bdfd  | cBAG  FD ((3c,B,A,) |
         | u(G,B,)(DG) (BA)G=F | ECEG       c2dc | ((3Bcd) gd ^cdDF | AGGF  G2           :|
|: Bc    | dggf        gdBd    | ceag       fbaf | gdBd       ecAG  | Fdd^c dedc          |
         | ((3Bcd) Bd  c3A     | ((3Bcd) gd gedc | ((3Bcd) gd ^cdDF | AGGF  G2           :|
